images/ice-cream.svg

<svg width="12" height="24" viewBox="0 0 12 24" fill="none" xmlns="http://www.w3.org/2000/svg">
<path d="M6 0C4.53149 0.00170022 3.11447 0.541271 2.01674 1.51674C0.919019 2.4922 0.21664 3.83598 0.0423526 5.29412H0V17.2094H12V5.29412H11.9576C11.7834 3.83598 11.081 2.4922 9.98326 1.51674C8.88553 0.541271 7.46851 0.00170022 6 0ZM10.5882 15.7976H1.41176V9.28941C1.54269 9.44729 1.71008 9.57092 1.89947 9.64963C2.08886 9.72833 2.29457 9.75976 2.49882 9.74118C3.40941 9.74118 4.00235 9.23294 4.00235 8.59059V7.97647C3.99318 7.89173 4.00195 7.80601 4.02809 7.72489C4.05424 7.64376 4.09717 7.56905 4.15411 7.50562C4.21104 7.44219 4.28069 7.39145 4.35853 7.35672C4.43637 7.322 4.52065 7.30405 4.60588 7.30405C4.69112 7.30405 4.7754 7.322 4.85323 7.35672C4.93107 7.39145 5.00072 7.44219 5.05766 7.50562C5.11459 7.56905 5.15753 7.64376 5.18367 7.72489C5.20982 7.80601 5.21859 7.89173 5.20941 7.97647V10.2988C5.21173 10.4857 5.2537 10.6699 5.33254 10.8394C5.41139 11.0088 5.52531 11.1596 5.66678 11.2817C5.80824 11.4038 5.97402 11.4945 6.15315 11.5477C6.33229 11.601 6.52068 11.6156 6.70588 11.5906C6.88668 11.6163 7.07086 11.6041 7.24665 11.5546C7.42244 11.5051 7.58598 11.4196 7.72682 11.3033C7.86765 11.187 7.98269 11.0427 8.06457 10.8794C8.14645 10.7162 8.19338 10.5377 8.20235 10.3553V8.79529C8.191 8.66373 8.20711 8.53125 8.24967 8.40625C8.29222 8.28124 8.36029 8.16645 8.44956 8.06914C8.53883 7.97184 8.64734 7.89415 8.76823 7.841C8.88911 7.78786 9.01972 7.76041 9.15176 7.76041C9.28381 7.76041 9.41442 7.78786 9.5353 7.841C9.65618 7.89415 9.7647 7.97184 9.85397 8.06914C9.94324 8.16645 10.0113 8.28124 10.0539 8.40625C10.0964 8.53125 10.1125 8.66373 10.1012 8.79529C10.0988 8.81641 10.0988 8.83771 10.1012 8.85882C10.119 8.99547 10.172 9.12517 10.2549 9.23527C10.3377 9.34537 10.4477 9.43212 10.5741 9.48706V15.84L10.5882 15.7976Z" fill="#2D3440"/>
<path d="M4.94118 22.9412C4.94118 23.222 5.05273 23.4913 5.2513 23.6899C5.44987 23.8884 5.71918 24 6 24C6.28082 24 6.55013 23.8884 6.7487 23.6899C6.94727 23.4913 7.05882 23.222 7.05882 22.9412V17.9153H4.94118V22.9412Z" fill="#2D3440"/>
</svg>

<svg width="12" height="24" fill="none" xmlns="http://www.w3.org/2000/svg"><path d="M6 0A6.007 6.007 0 0 0 .0424 5.2941H0v11.9153h12V5.2941h-.0424A6.007 6.007 0 0 0 6 0Zm4.5882 15.7976H1.4118V9.2894a1.2636 1.2636 0 0 0 1.087.4518c.9106 0 1.5035-.5083 1.5035-1.1506v-.6141a.6073.6073 0 0 1 .851-.6198.6072.6072 0 0 1 .3561.6198v2.3223a1.3205 1.3205 0 0 0 .4574.9829 1.3192 1.3192 0 0 0 1.039.3089 1.3132 1.3132 0 0 0 1.4965-1.2353v-1.56a.953.953 0 1 1 1.8989 0 .2812.2812 0 0 0 0 .0635.797.797 0 0 0 .4729.6283V15.84l.0141-.0424ZM4.9412 22.9412a1.0589 1.0589 0 0 0 2.1176 0v-5.0259H4.9412v5.0259Z" fill="#2D3440"/></svg>
